img/svgicons/youtube.svg

<svg width="16" height="16" viewBox="0 0 16 16" fill="none" xmlns="http://www.w3.org/2000/svg">
<path d="M15.3764 12.6635C14.7988 13.35 13.7325 13.6301 11.6961 13.6301H4.30379C2.22075 13.6301 1.13636 13.3319 0.560981 12.601C0 11.8883 0 10.8383 0 9.38496V6.61494C0 3.79941 0.6656 2.36988 4.30379 2.36988H11.6961C13.4621 2.36988 14.4407 2.61701 15.0738 3.22289C15.723 3.84421 16 4.85866 16 6.61494V9.38496C16 10.9176 15.9566 11.9739 15.3764 12.6635ZM10.2721 7.61752L6.91525 5.86315C6.84021 5.82392 6.75814 5.80447 6.67618 5.80447C6.58338 5.80447 6.49079 5.82945 6.40877 5.8791C6.25435 5.97267 6.16005 6.14005 6.16005 6.32059V9.81809C6.16005 9.99832 6.25409 10.1655 6.40821 10.2592C6.56237 10.3528 6.75412 10.3592 6.91406 10.2761L10.2709 8.53303C10.4417 8.44436 10.5489 8.26805 10.5492 8.07569C10.5494 7.88318 10.4426 7.70661 10.2721 7.61752Z" fill="#323232"/>
</svg>

<svg width="16" height="16" fill="none" xmlns="http://www.w3.org/2000/svg"><path d="M15.376 12.664c-.577.686-1.643.966-3.68.966H4.304c-2.083 0-3.168-.298-3.743-1.029C0 11.888 0 10.838 0 9.385v-2.77C0 3.799.666 2.37 4.304 2.37h7.392c1.766 0 2.745.247 3.378.853.649.621.926 1.636.926 3.392v2.77c0 1.533-.043 2.589-.624 3.279Zm-5.104-5.046L6.915 5.863a.516.516 0 0 0-.755.458v3.497a.516.516 0 0 0 .754.458l3.357-1.743a.516.516 0 0 0 .001-.915Z" fill="#323232"/></svg>
